icon-svg/world-scout-alt.svg

<svg xmlns="http://www.w3.org/2000/svg" viewBox="0 0 24 24"><path fill="#44739e" d="M11.713 12.572q0 .726.006 1.453h.562c0-.432.006-.913.006-1.453A40 40 0 0 0 12 6.1a40 40 0 0 0-.287 6.472M12 2a10 10 0 1 0 10 10A10 10 0 0 0 12 2M8.779 17.365a1.02 1.02 0 0 1-1.04-1.359 1.27 1.27 0 0 0 1.05.208 1.34 1.34 0 0 0 .894-.975h.724c-.197 1.461-.892 2.126-1.628 2.126M12 19.527a7.3 7.3 0 0 1-2.018-1.582 4.95 4.95 0 0 0 1.028-2.706h.729a16.6 16.6 0 0 0 .261 2.9 16.7 16.7 0 0 0 .261-2.9h.729a4.96 4.96 0 0 0 1.027 2.706A7.3 7.3 0 0 1 12 19.527m3.221-2.163c-.736 0-1.431-.665-1.627-2.125h.725a1.35 1.35 0 0 0 .893.975 1.27 1.27 0 0 0 1.051-.208 1.02 1.02 0 0 1-1.042 1.358m1.857-2.913a1.348 1.348 0 0 0-.839-2.051 1.77 1.77 0 0 0-1.963 1.625h.756a.58.58 0 0 1 0 .714H8.971a.574.574 0 0 1 0-.713h.755A1.77 1.77 0 0 0 7.763 12.4a1.347 1.347 0 0 0-.841 2.05 2.465 2.465 0 0 1 .274-4.916c1.905 0 3.149 2.048 3.255 4.49h.6c-.102-2.816-1.612-3.913-1.612-5.782 0-2.022 2.079-3.844 2.561-4.323.481.479 2.56 2.3 2.56 4.323 0 1.869-1.509 2.966-1.608 5.783h.6c.107-2.442 1.351-4.49 3.255-4.49A2.475 2.475 0 0 1 19.287 12a2.473 2.473 0 0 1-2.209 2.451"/></svg>

<?xml version="1.0" encoding="UTF-8"?>
<svg width="24px" fill="#44739e" height="24px" viewBox="0 0 24 24" version="1.1" xmlns="http://www.w3.org/2000/svg" xmlns:xlink="http://www.w3.org/1999/xlink">
            <path d="m 11.774,12.572 q 0,0.726 0.006,1.453 h 0.562 c 0,-0.432 0.006,-0.913 0.006,-1.453 A 40.3,40.3 0 0 0 12.061,6.1 40.288,40.288 0 0 0 11.774,12.572 Z M 12.061,2 a 10,10 0 1 0 10,10 10,10 0 0 0 -10,-10 z M 8.84,17.365 A 1.02,1.02 0 0 1 7.8,16.006 1.273,1.273 0 0 0 8.85,16.214 1.344,1.344 0 0 0 9.744,15.239 h 0.724 C 10.271,16.7 9.576,17.365 8.84,17.365 Z m 3.221,2.162 a 7.276,7.276 0 0 1 -2.018,-1.582 4.948,4.948 0 0 0 1.028,-2.706 H 11.8 a 16.565,16.565 0 0 0 0.261,2.9 16.654,16.654 0 0 0 0.261,-2.9 h 0.729 a 4.955,4.955 0 0 0 1.027,2.706 7.262,7.262 0 0 1 -2.017,1.582 z m 3.221,-2.163 c -0.736,0 -1.431,-0.665 -1.627,-2.125 h 0.725 a 1.345,1.345 0 0 0 0.893,0.975 1.274,1.274 0 0 0 1.051,-0.208 1.02,1.02 0 0 1 -1.042,1.358 z m 1.857,-2.913 A 1.348,1.348 0 0 0 16.3,12.4 1.769,1.769 0 0 0 14.337,14.025 h 0.756 a 0.58,0.58 0 0 1 0,0.714 H 9.032 a 0.574,0.574 0 0 1 0,-0.713 H 9.787 A 1.768,1.768 0 0 0 7.824,12.4 1.347,1.347 0 0 0 6.983,14.45 2.465,2.465 0 0 1 7.257,9.534 c 1.905,0 3.149,2.048 3.255,4.49 h 0.6 C 11.01,11.208 9.5,10.111 9.5,8.242 c 0,-2.022 2.079,-3.844 2.561,-4.323 0.481,0.479 2.56,2.3 2.56,4.323 0,1.869 -1.509,2.966 -1.608,5.783 h 0.6 c 0.107,-2.442 1.351,-4.49 3.255,-4.49 A 2.475,2.475 0 0 1 19.348,12 v 0 a 2.473,2.473 0 0 1 -2.209,2.451 z"/>

</svg>
